src/images/avatars/avatar-4.svg

<svg fill="none" height="77" viewBox="0 0 45 77" width="45" xmlns="http://www.w3.org/2000/svg"><path d="m2.39999 29.3c-.3-14.3 3.19999-28.09999 20.70001-28.09999 16.7 0 19.7 13.99999 19.5 28.09999-.6 13.1-40.00001 7.6-40.20001 0z" fill="#b06445" stroke="#4d4d4d" stroke-linejoin="round" stroke-miterlimit="10" stroke-width="2"/><path d="m27.4 58v-14.5h-10.2v14.5c0 1.1-.9 2-2 2h-1.7c0 3.4 4.7 6.1 8.8 6.1s8.7999-2.7 8.7999-6.1h-1.5999c-1.2 0-2.1-.9-2.1-2z" fill="#fcc5af" stroke="#4d4d4d" stroke-linejoin="round" stroke-miterlimit="10" stroke-width="2"/><path d="m27.3001 63.1c-1.7001 0-8.8001-9.7-8.7001-10.5.1-1.5-.1-.9-.1-.9l8.8001.2c.1.1.2 11.2 0 11.2z" fill="#f99f7a" opacity=".5"/><g stroke="#4d4d4d" stroke-linejoin="round" stroke-miterlimit="10" stroke-width="2"><path d="m27.4 58v-14.5h-10.2v14.5c0 1.1-.9 2-2 2h-1.7c0 3.4 4.7 6.1 8.8 6.1s8.7999-2.7 8.7999-6.1h-1.5999c-1.2 0-2.1-.9-2.1-2z"/><path d="m4.89998 37.1c2.1539 0 3.89998-1.7461 3.89998-3.9s-1.74608-3.9-3.89998-3.9-3.89998 1.7461-3.89998 3.9 1.74608 3.9 3.89998 3.9z" fill="#fcc5af"/><path d="m39.6999 37.1c2.1539 0 3.9-1.7461 3.9-3.9s-1.7461-3.9-3.9-3.9-3.9 1.7461-3.9 3.9 1.7461 3.9 3.9 3.9z" fill="#fcc5af"/><path d="m31.4002 10.7s2.3 3.6 1 6.3c-1.7-2.5-4.1-4.8-7.9-6.7-1-.49999-3.4-1.59999-5.5-1.59999-7.5 0-14.3 3.89999-14.3 24.99999 0 12.5 9.3 19 17 19 8.8 0 17.9999-6.5 17.9999-20.7.1-13.6-2.1999-18-8.2999-21.3z" fill="#fcc5af"/><path d="m20.7998 36.5v1.7c0 .7.6 1.3 1.3 1.3h1.5999" stroke-linecap="round"/><path d="m19.7002 44.8c1.8.7 3.4.7 5.1 0" stroke-linecap="round"/></g><path d="m42.5998 66.7c0-4.4-3.6-8-8-8h-5.2s-1.1 3.8-7.1 3.8c-5.7 0-7.4-3.8-7.4-3.8h-5.00001c-4.40001 0-8.00001 3.6-8.00001 8v1.3c5.3 4.9 12.40002 7.8 20.20002 7.8 7.9 0 15-3 20.4-8v-1.1z" fill="#5c5c5c"/><path d="m42.5998 66.7c0-4.4-3.6-8-8-8h-5.2s-1.1 3.8-7.1 3.8c-5.7 0-7.4-3.8-7.4-3.8h-5.00001c-4.40001 0-8.00001 3.6-8.00001 8v1.3c5.3 4.9 12.40002 7.8 20.20002 7.8 7.9 0 15-3 20.4-8v-1.1z" stroke="#4d4d4d" stroke-linejoin="round" stroke-miterlimit="10" stroke-width="2"/><path d="m8.3999 65.7v4.4" stroke="#4d4d4d" stroke-linecap="round" stroke-linejoin="round" stroke-miterlimit="10" stroke-width="2"/><path d="m36.2998 65.7v4.4" stroke="#4d4d4d" stroke-linecap="round" stroke-linejoin="round" stroke-miterlimit="10" stroke-width="2"/><path d="m16.1001 31.2c.8284 0 1.5-.6716 1.5-1.5s-.6716-1.5-1.5-1.5-1.5.6716-1.5 1.5.6716 1.5 1.5 1.5z" fill="#4d4d4d"/><path d="m28.5002 31.2c.8284 0 1.5-.6716 1.5-1.5s-.6716-1.5-1.5-1.5-1.5.6716-1.5 1.5.6716 1.5 1.5 1.5z" fill="#4d4d4d"/></svg>

<svg width="45" height="77" viewBox="0 0 45 77" fill="none" xmlns="http://www.w3.org/2000/svg">
<path d="M2.39999 29.3C2.09999 15 5.59998 1.20001 23.1 1.20001C39.8 1.20001 42.8 15.2 42.6 29.3C42 42.4 2.59999 36.9 2.39999 29.3Z" fill="#B06445" stroke="#4D4D4D" stroke-width="2" stroke-miterlimit="10" stroke-linejoin="round"/>
<path d="M27.4 58V43.5H17.2V58C17.2 59.1 16.3 60 15.2 60H13.5C13.5 63.4 18.2 66.1 22.3 66.1C26.4 66.1 31.0999 63.4 31.0999 60H29.5C28.3 60 27.4 59.1 27.4 58Z" fill="#FCC5AF" stroke="#4D4D4D" stroke-width="2" stroke-miterlimit="10" stroke-linejoin="round"/>
<path opacity="0.5" d="M27.3001 63.1C25.6 63.1 18.5 53.4 18.6 52.6C18.7 51.1 18.5 51.7 18.5 51.7L27.3001 51.9C27.4001 52 27.5001 63.1 27.3001 63.1Z" fill="#F99F7A"/>
<path d="M27.4 58V43.5H17.2V58C17.2 59.1 16.3 60 15.2 60H13.5C13.5 63.4 18.2 66.1 22.3 66.1C26.4 66.1 31.0999 63.4 31.0999 60H29.5C28.3 60 27.4 59.1 27.4 58Z" stroke="#4D4D4D" stroke-width="2" stroke-miterlimit="10" stroke-linejoin="round"/>
<path d="M4.89998 37.1C7.05388 37.1 8.79996 35.3539 8.79996 33.2C8.79996 31.0461 7.05388 29.3 4.89998 29.3C2.74608 29.3 1 31.0461 1 33.2C1 35.3539 2.74608 37.1 4.89998 37.1Z" fill="#FCC5AF" stroke="#4D4D4D" stroke-width="2" stroke-miterlimit="10" stroke-linejoin="round"/>
<path d="M39.6999 37.1C41.8538 37.1 43.5999 35.3539 43.5999 33.2C43.5999 31.0461 41.8538 29.3 39.6999 29.3C37.546 29.3 35.7999 31.0461 35.7999 33.2C35.7999 35.3539 37.546 37.1 39.6999 37.1Z" fill="#FCC5AF" stroke="#4D4D4D" stroke-width="2" stroke-miterlimit="10" stroke-linejoin="round"/>
<path d="M31.4002 10.7C31.4002 10.7 33.7002 14.3 32.4002 17C30.7002 14.5 28.3002 12.2 24.5002 10.3C23.5002 9.80001 21.1002 8.70001 19.0002 8.70001C11.5002 8.70001 4.7002 12.6 4.7002 33.7C4.7002 46.2 14.0002 52.7 21.7002 52.7C30.5002 52.7 39.7001 46.2 39.7001 32C39.8001 18.4 37.5002 14 31.4002 10.7Z" fill="#FCC5AF" stroke="#4D4D4D" stroke-width="2" stroke-miterlimit="10" stroke-linejoin="round"/>
<path d="M20.7998 36.5V38.2C20.7998 38.9 21.3998 39.5 22.0998 39.5H23.6997" stroke="#4D4D4D" stroke-width="2" stroke-miterlimit="10" stroke-linecap="round" stroke-linejoin="round"/>
<path d="M19.7002 44.8C21.5002 45.5 23.1002 45.5 24.8002 44.8" stroke="#4D4D4D" stroke-width="2" stroke-miterlimit="10" stroke-linecap="round" stroke-linejoin="round"/>
<path d="M42.5998 66.7C42.5998 62.3 38.9998 58.7 34.5998 58.7H29.3998C29.3998 58.7 28.2998 62.5 22.2998 62.5C16.5998 62.5 14.8998 58.7 14.8998 58.7H9.89979C5.49978 58.7 1.89978 62.3 1.89978 66.7V68C7.19978 72.9 14.2998 75.8 22.0998 75.8C29.9998 75.8 37.0998 72.8 42.4998 67.8V66.7H42.5998Z" fill="#5C5C5C"/>
<path d="M42.5998 66.7C42.5998 62.3 38.9998 58.7 34.5998 58.7H29.3998C29.3998 58.7 28.2998 62.5 22.2998 62.5C16.5998 62.5 14.8998 58.7 14.8998 58.7H9.89979C5.49978 58.7 1.89978 62.3 1.89978 66.7V68C7.19978 72.9 14.2998 75.8 22.0998 75.8C29.9998 75.8 37.0998 72.8 42.4998 67.8V66.7H42.5998Z" stroke="#4D4D4D" stroke-width="2" stroke-miterlimit="10" stroke-linejoin="round"/>
<path d="M8.3999 65.7V70.1" stroke="#4D4D4D" stroke-width="2" stroke-miterlimit="10" stroke-linecap="round" stroke-linejoin="round"/>
<path d="M36.2998 65.7V70.1" stroke="#4D4D4D" stroke-width="2" stroke-miterlimit="10" stroke-linecap="round" stroke-linejoin="round"/>
<path d="M16.1001 31.2C16.9285 31.2 17.6001 30.5284 17.6001 29.7C17.6001 28.8716 16.9285 28.2 16.1001 28.2C15.2717 28.2 14.6001 28.8716 14.6001 29.7C14.6001 30.5284 15.2717 31.2 16.1001 31.2Z" fill="#4D4D4D"/>
<path d="M28.5002 31.2C29.3286 31.2 30.0002 30.5284 30.0002 29.7C30.0002 28.8716 29.3286 28.2 28.5002 28.2C27.6718 28.2 27.0002 28.8716 27.0002 29.7C27.0002 30.5284 27.6718 31.2 28.5002 31.2Z" fill="#4D4D4D"/>
</svg>
